public/icons/git-48.svg

<svg xmlns="http://www.w3.org/2000/svg" xmlns:xlink="http://www.w3.org/1999/xlink" viewBox="0,0,256,256" width="48px" height="48px" fill-rule="nonzero"><defs><linearGradient x1="-1.151" y1="9.473" x2="62.752" y2="46.368" gradientUnits="userSpaceOnUse" id="color-1"><stop offset="0" stop-color="#ffffff" stop-opacity="0"></stop><stop offset="1" stop-color="#c1c0be"></stop></linearGradient><linearGradient x1="-4.664" y1="-3.232" x2="45.347" y2="46.779" gradientUnits="userSpaceOnUse" id="color-2"><stop offset="0" stop-color="#ffffff" stop-opacity="0"></stop><stop offset="1" stop-color="#c1c0be"></stop></linearGradient></defs><g fill="none" fill-rule="nonzero" stroke="none" stroke-width="1" stroke-linecap="butt" stroke-linejoin="miter" stroke-miterlimit="10" stroke-dasharray="" stroke-dashoffset="0" font-family="none" font-weight="none" font-size="none" text-anchor="none" style="mix-blend-mode: normal"><g transform="scale(5.33333,5.33333)"><path d="M44,24c0,-11.046 -8.954,-20 -20,-20c-11.046,0 -20,8.954 -20,20c0,8.885 5.799,16.407 13.815,19.014c-0.001,0 -0.003,0 -0.004,0c1.944,0.654 4.022,0.986 6.189,0.986c2.166,0 4.243,-0.332 6.19,-0.984c-0.305,0.056 -0.603,-0.04 -0.825,-0.23c0.22,0.187 0.515,0.281 0.816,0.229c8.018,-2.604 13.819,-10.128 13.819,-19.015zM17.815,43.014c0.302,0.054 0.599,-0.039 0.82,-0.226c-0.221,0.187 -0.518,0.28 -0.82,0.226zM18.901,42.444c-0.052,0.108 -0.132,0.195 -0.216,0.278c0.084,-0.083 0.164,-0.17 0.216,-0.278zM29.1,42.444c0.053,0.109 0.133,0.199 0.218,0.283c-0.084,-0.084 -0.165,-0.174 -0.218,-0.283z" fill="url(#color-1)"></path><path d="M37,23.5c0,-2.897 -0.875,-4.966 -2.355,-6.424c0.946,-1.682 -0.306,-5.076 -0.306,-5.076c-2.5,0.5 -4.367,1.5 -5.609,2.376c-1.468,-0.261 -3.059,-0.376 -4.73,-0.376c-1.71,0 -3.339,0.118 -4.834,0.393c-1.242,-0.879 -3.115,-1.889 -5.632,-2.393c0,0 -1.284,3.492 -0.255,5.146c-1.436,1.454 -2.279,3.505 -2.279,6.354c0,6.122 3.879,8.578 9.209,9.274c-0.743,0.873 -1.209,1.99 -1.209,3.226v0.305c-0.163,0.045 -0.332,0.084 -0.514,0.108c-1.107,0.143 -2.271,0 -2.833,-0.333c-0.562,-0.333 -1.229,-1.083 -1.729,-1.813c-0.422,-0.616 -1.263,-2.032 -3.416,-1.979c-0.376,-0.01 -0.548,0.343 -0.5,0.563c0.043,0.194 0.213,0.5 0.896,0.75c0.685,0.251 1.063,0.854 1.438,1.458c0.418,0.674 0.417,2.468 2.562,3.416c1.53,0.677 2.988,0.594 4.097,0.327l0.001,3.199c0,0.639 -0.585,1.125 -1.191,1.013c1.944,0.654 4.022,0.986 6.189,0.986c2.166,0 4.243,-0.332 6.19,-0.984c-0.606,0.111 -1.19,-0.375 -1.19,-1.014v-6.002c0,-1.236 -0.466,-2.353 -1.209,-3.226c5.33,-0.696 9.209,-3.152 9.209,-9.274z" fill="url(#color-2)"></path></g></g></svg>

<svg xmlns="http://www.w3.org/2000/svg"  viewBox="0 0 48 48" width="48px" height="48px" baseProfile="basic"><linearGradient id="1XJuQMc3whEUIMH7nHBV6a" x1="-1.151" x2="62.752" y1="9.473" y2="46.368" gradientUnits="userSpaceOnUse"><stop offset="0" stop-color="#262626" stop-opacity="0"/><stop offset="1" stop-color="#262626" stop-opacity=".8"/></linearGradient><path fill="url(#1XJuQMc3whEUIMH7nHBV6a)" d="M44,24c0-11.046-8.954-20-20-20S4,12.954,4,24c0,8.885,5.799,16.407,13.815,19.014	c-0.001,0-0.003,0-0.004,0C19.755,43.668,21.833,44,24,44c2.166,0,4.243-0.332,6.19-0.984c-0.305,0.056-0.603-0.04-0.825-0.23	c0.22,0.187,0.515,0.281,0.816,0.229C38.199,40.411,44,32.887,44,24z M17.815,43.014c0.302,0.054,0.599-0.039,0.82-0.226	C18.414,42.975,18.117,43.068,17.815,43.014z M18.901,42.444c-0.052,0.108-0.132,0.195-0.216,0.278	C18.769,42.639,18.849,42.552,18.901,42.444z M29.1,42.444c0.053,0.109,0.133,0.199,0.218,0.283	C29.234,42.643,29.153,42.553,29.1,42.444z"/><linearGradient id="1XJuQMc3whEUIMH7nHBV6b" x1="-4.664" x2="45.347" y1="-3.232" y2="46.779" gradientUnits="userSpaceOnUse"><stop offset="0" stop-color="#262626" stop-opacity="0"/><stop offset="1" stop-color="#262626" stop-opacity=".8"/></linearGradient><path fill="url(#1XJuQMc3whEUIMH7nHBV6b)" d="M37,23.5c0-2.897-0.875-4.966-2.355-6.424C35.591,15.394,34.339,12,34.339,12	c-2.5,0.5-4.367,1.5-5.609,2.376C27.262,14.115,25.671,14,24,14c-1.71,0-3.339,0.118-4.834,0.393	c-1.242-0.879-3.115-1.889-5.632-2.393c0,0-1.284,3.492-0.255,5.146C11.843,18.6,11,20.651,11,23.5c0,6.122,3.879,8.578,9.209,9.274	C19.466,33.647,19,34.764,19,36v0.305c-0.163,0.045-0.332,0.084-0.514,0.108c-1.107,0.143-2.271,0-2.833-0.333	s-1.229-1.083-1.729-1.813c-0.422-0.616-1.263-2.032-3.416-1.979c-0.376-0.01-0.548,0.343-0.5,0.563	c0.043,0.194,0.213,0.5,0.896,0.75c0.685,0.251,1.063,0.854,1.438,1.458c0.418,0.674,0.417,2.468,2.562,3.416	c1.53,0.677,2.988,0.594,4.097,0.327l0.001,3.199c0,0.639-0.585,1.125-1.191,1.013C19.755,43.668,21.833,44,24,44	c2.166,0,4.243-0.332,6.19-0.984C29.584,43.127,29,42.641,29,42.002V36c0-1.236-0.466-2.353-1.209-3.226	C33.121,32.078,37,29.622,37,23.5z"/></svg>
